X:1
T:Ingerid Sletten
T:W. Peterson-Berger (1867-1942)
T:Björnstjerne Björnson
T:Ingerid Sletten
T:Ur "Arne"
T:©CPDL Edition may be freely distributed, duplicated, performed and recorded PA Aglert
T:©CPDL Edition may be freely distributed, duplicated, performed and recorded PA Aglert
C:W. Peterson-Berger (1867-1942)
Z:©CPDL Edition may be freely distributed, duplicated, performed and recorded
Z:PA Aglert
%%score [ 1 2 3 4 ]
L:1/8
Q:1/4=70
M:3/4
K:Dmin
V:1 treble nm="S"
V:2 treble nm="A"
V:3 treble-8 nm="T"
V:4 bass nm="B"
V:1
"^Ekelt, ej hastigt"!p! (3DFA ^G2 EF |!<(! DA!<)!!>(! =B4!>)! | cc A!courtesy!_B (3GAF | E6 | %4
w: In- ge- rid Slet- ten på|Sil- le- jord|ha- de var- ken gods el- ler|gull,|
 D/D/F/A/ ^G2 EF |!<(! DA!<)!!>(! =B4!>)! | cc AB (3GAF | D4- D!<(!A!<)! |!f! (3:2:2f2 f e2 ^cd | %9
w: blott en li- ten hu- va av|fär- gad ull,|som hon ha- de fått av sin|mor. * En|li- ten hu- va av|
 (3:2:2e2 f d4 |!mf! cc AB!>(! (3GAF | G4!>)!!p! E2 | (3(DF)A ^G2 EF |!<(! DA!<)! =B3 B | %14
w: fär- gad ull,|ack den stas- sen var in- te|stor, men|fat- * tigt min- ne av|far och mor, det|
 (3cAB (G2 A)F |!mf!!>(! D6!>)! |!p!!>(! D2 F2 G2!>)! |!pp! A6 |] %18
w: glän- ste långt mer * än|gull|långt mer än|gull.|
V:2
!p! (3DDD D2 D^C |!<(! DD!<)!!>(! D4!>)! | !courtesy!=CC CB, (3B,A,D | ^G,6- | G,A,/A,/ A,2 D^C | %5
w: In- ge- rid Slet- ten på|Sil- le- jord|ha- de var- ken gods el- ler|gull,|* blott en hu- va av|
!<(! DD!<)!!>(! D4!>)! | CC CB, (3B,A,^C | D4- D!<(!F!<)! |!f! (3:2:2A2 A ^G2 GG | %9
w: fär- gad ull,|som hon ha- de fått av sin|mor. * En|li- ten hu- va av|
 (3:2:2!courtesy!=G2 G F4 |!mf! AA FF!>(! (3EEF | D4!>)!!p! ^C2 | (3:2:2D2 D D2 D^C | %13
w: fär- gad ull,|ack den stas- sen var in- te|stor, men|fat- tigt min- ne av|
!<(! DD!<)! D3 D | (3CCB, (B,2 C)^C |!mf!!>(! (D2 ^C4)!>)! | %16
w: far och mor, det|glän- ste långt mer * än|gull *|
!p!!>(! (!courtesy!=C=B,) _B,2!>)! B,2 |!pp! D6 |] %18
w: långt * mer än|gull.|
V:3
!p! (3AAA A2 AA |!<(! AA!<)!!>(! ^G4!>)! | !courtesy!=GG ^F=F (3EFA | d6- | dd/d/ d2 AA | %5
w: In- ge- rid Slet- ten på|Sil- le- jord|ha- de var- ken gods el- ler|gull,|* blott en hu- va av|
!<(! AA!<)!!>(! ^G4!>)! | GG ^F=F (3EFA | D4- D!<(!A!<)! |!f! (3:2:2d2 d d2 ed | (3:2:2^c2 c d4 | %10
w: fär- gad ull,|som hon ha- de fått av sin|mor. * En|li- ten hu- va av|fär- gad ull,|
!mf! ee dd!>(! (3ccd | B4!>)!!p! A2 | (3:2:2d2 d d2 dA |!<(! AA!<)! ^G3 G | %14
w: ack den stas- sen var in- te|stor, men|fat- tigt min- ne av|far och mor, det|
 (3!courtesy!=G^F=F E3 F |!mf!!>(! (F2 E4)!>)! |!p!!>(! F2 D2!>)! E2 |!pp! A6 |] %18
w: glän- ste långt mer än|gull *|långt mer än|gull.|
V:4
!p! (3F,F,F, E,2 F,G, |!<(! F,F,!<)!!>(! E,4!>)! | _E,E, D,D, (3D,^C,=C, | =B,,6- | %4
w: In- ge- rid Slet- ten på|Sil- le- jord|ha- de var- ken gods el- ler|gull,|
 B,,D,/D,/ E,2 A,!courtesy!=G, |!<(! F,F,!<)!!>(! E,4!>)! | _E,E, D,D, (3D,^C,A,, | %7
w: * blott en hu- va av|fär- gad ull,|som hon ha- de fått av sin|
 D,4- D,!<(!D,!<)! |!f! (3:2:2D,2 D, E,2 E,E, | (3:2:2A,2 A, B,4 |!mf! CC DG,!>(! (3CF,B, | %11
w: mor. * En|li- ten hu- va av|fär- gad ull,|ack den stas- sen var in- te|
 E,4!>)!!p! A,2 | (3:2:2D2 C =B,2 _B,A, |!<(! F,F,!<)! E,3 E, | (3_E,D,D, (D,2 ^C,)A, | %15
w: stor, men|fat- tigt min- ne av|far och mor, det|glän- ste långt mer * än|
!mf!!>(! (B,,2 A,,4)!>)! |!p!!>(! _A,,2 G,,2!>)! D,2 |!pp! D,6 |] %18
w: gull *|långt mer än|gull.|

